motocrosskursk/img/icons/insta.svg

<svg width="21" height="20" viewBox="0 0 21 20" fill="none" xmlns="http://www.w3.org/2000/svg">
<g clip-path="url(#clip0_104_391)">
<path d="M14.9665 0H6.58619C5.04582 0.00160613 3.569 0.614226 2.4798 1.70343C1.39059 2.79264 0.777973 4.26945 0.776367 5.80982L0.776367 14.1902C0.777973 15.7305 1.39059 17.2074 2.4798 18.2966C3.569 19.3858 5.04582 19.9984 6.58619 20H14.9665C16.5069 19.9984 17.9837 19.3858 19.0729 18.2966C20.1621 17.2074 20.7748 15.7305 20.7764 14.1902V5.80982C20.7748 4.26945 20.1621 2.79264 19.0729 1.70343C17.9837 0.614226 16.5069 0.00160613 14.9665 0V0ZM19.2137 14.1902C19.2124 15.3162 18.7646 16.3958 17.9683 17.192C17.1721 17.9882 16.0926 18.4361 14.9665 18.4373H6.58619C5.46016 18.4361 4.38061 17.9882 3.58439 17.192C2.78816 16.3958 2.3403 15.3162 2.33905 14.1902V5.80982C2.3403 4.68379 2.78816 3.60424 3.58439 2.80802C4.38061 2.01179 5.46016 1.56393 6.58619 1.56268H14.9665C16.0926 1.56393 17.1721 2.01179 17.9683 2.80802C18.7646 3.60424 19.2124 4.68379 19.2137 5.80982V14.1902Z" fill="#F4510C"/>
<path d="M10.7789 4.60916C9.71227 4.60916 8.66955 4.92547 7.78264 5.51808C6.89573 6.11069 6.20448 6.95299 5.79628 7.93847C5.38808 8.92395 5.28128 10.0083 5.48937 11.0545C5.69747 12.1007 6.21112 13.0617 6.96538 13.8159C7.71963 14.5702 8.6806 15.0838 9.72678 15.2919C10.773 15.5 11.8573 15.3932 12.8428 14.985C13.8283 14.5768 14.6706 13.8856 15.2632 12.9987C15.8558 12.1118 16.1721 11.069 16.1721 10.0024C16.1712 8.57227 15.6028 7.20101 14.5915 6.18978C13.5803 5.17855 12.209 4.61005 10.7789 4.60916ZM10.7789 13.8282C10.0217 13.8286 9.28135 13.6043 8.65156 13.1839C8.02177 12.7634 7.53083 12.1656 7.24086 11.4661C6.95089 10.7666 6.87492 9.99678 7.02255 9.25406C7.17018 8.51135 7.53479 7.82911 8.07024 7.29366C8.60569 6.75821 9.28793 6.3936 10.0306 6.24597C10.7734 6.09833 11.5432 6.17431 12.2427 6.46428C12.9422 6.75425 13.54 7.24518 13.9605 7.87498C14.3809 8.50477 14.6051 9.24512 14.6047 10.0024C14.603 11.0165 14.1993 11.9886 13.4822 12.7056C12.7651 13.4227 11.7931 13.8264 10.7789 13.8282Z" fill="#F4510C"/>
<path d="M16.3047 5.39319C16.8632 5.39319 17.3159 5.09136 17.3159 4.71904C17.3159 4.34672 16.8632 4.04489 16.3047 4.04489C15.7462 4.04489 15.2935 4.34672 15.2935 4.71904C15.2935 5.09136 15.7462 5.39319 16.3047 5.39319Z" fill="#F4510C"/>
</g>
<defs>
<clipPath id="clip0_104_391">
<rect width="20" height="20" fill="white" transform="translate(0.776367)"/>
</clipPath>
</defs>
</svg>

<svg width="21" height="20" fill="none" xmlns="http://www.w3.org/2000/svg"><g clip-path="url(#clip0_104_391)" fill="#F4510C"><path d="M14.966 0h-8.38a5.816 5.816 0 00-5.81 5.81v8.38A5.816 5.816 0 006.586 20h8.38a5.816 5.816 0 005.81-5.81V5.81A5.816 5.816 0 0014.966 0zm4.248 14.19a4.252 4.252 0 01-4.247 4.247h-8.38a4.252 4.252 0 01-4.248-4.247V5.81a4.252 4.252 0 014.247-4.247h8.38a4.252 4.252 0 014.248 4.247v8.38z"/><path d="M10.779 4.61a5.393 5.393 0 100 10.786 5.393 5.393 0 000-10.787zm0 9.218a3.828 3.828 0 11-.004-7.656 3.828 3.828 0 01.004 7.656zm5.526-8.435c.558 0 1.01-.302 1.01-.674 0-.372-.452-.674-1.01-.674-.559 0-1.011.302-1.011.674 0 .372.452.674 1.01.674z"/></g><defs><clipPath id="clip0_104_391"><path fill="#fff" transform="translate(.776)" d="M0 0h20v20H0z"/></clipPath></defs></svg>
